move 50 
turn 90
move 50
turn 90
move 10
turn 12
move 10
turn 12
move 10
turn 12
move 10
turn 12
move 10
turn 12
move 10
turn 12
move 10
turn 12
move 10
turn 12
move 10
turn 12
move 10
turn 12
move 10
turn 12
move 10
turn 12
move 10
